resources/button-slower.svg

<svg xmlns="http://www.w3.org/2000/svg" width="48" height="48" viewBox="0 0 48 48">
    <path d="M0 0h48v48h-48z" fill="none"/>
    <path d="M28 7.6c1.98 0 3.6-1.61 3.6-3.6s-1.62-3.6-3.6-3.6c-1.99 0-3.6 1.61-3.6 3.6s1.61 3.6 3.6 3.6zm.24 12.4h9.76v-3.6h-7.25l-4-6.66c-.59-1-1.68-1.66-2.92-1.66-.34 0-.67.05-.98.14l-10.85 3.38v10.4h3.6v-7.33l4.21-1.31-7.81 30.64h3.6l5.74-16.22 4.66 6.22v10h3.6v-12.81l-4.98-9.08 1.47-5.74 2.15 3.63z"/>
</svg>

<svg xmlns="http://www.w3.org/2000/svg" width="48" height="48" viewBox="0 0 48 48">
	<path fill="none" d="M0 0h48v48H0z"/>
	<path d="M28 7.6c1.98 0 3.6-1.61 3.6-3.6S29.98.4 28 .4c-1.99 0-3.6 1.61-3.6 3.6s1.61 3.6 3.6 3.6zm.24 12.4H38v-3.6h-7.25l-4-6.66c-.59-1-1.68-1.66-2.92-1.66-.34 0-.67.05-.98.14L12 11.6V22h3.6v-7.33l4.21-1.31L12 44h3.6l5.74-16.22L26 34v10h3.6V31.19l-4.98-9.08 1.47-5.74L28.24 20z"/>
</svg>
